assets/icon_cal.svg

<svg xmlns="http://www.w3.org/2000/svg" viewBox="0 0 25 23.44"><title>platformsAsset 34quesitons</title><path d="M4.69,1.56V0H6.25V1.56h12.5V0h1.56V1.56H25V23.44H0V1.56ZM20.31,3.13V4.69H18.75V3.13H6.25V4.69H4.69V3.13H1.56V6.25H23.44V3.13Zm3.13,18.75V7.81H1.56V21.88ZM6.25,10.94H4.69V9.38H6.25Zm0,3.12H4.69V12.5H6.25Zm0,3.13H4.69V15.63H6.25Zm4.69-6.25H9.38V9.38h1.56Zm0,3.12H9.38V12.5h1.56Zm0,3.13H9.38V15.63h1.56Zm0,3.12H9.38V18.75h1.56Zm4.68-9.37H14.06V9.38h1.56Zm0,3.12H14.06V12.5h1.56Zm0,3.13H14.06V15.63h1.56Zm0,3.12H14.06V18.75h1.56Zm4.69-6.25H18.75V12.5h1.56Zm0,3.13H18.75V15.63h1.56Zm0,3.12H18.75V18.75h1.56Z"/></svg>

<?xml version="1.0" encoding="utf-8"?>
<!-- Generator: Adobe Illustrator 23.0.2, SVG Export Plug-In . SVG Version: 6.00 Build 0)  -->
<svg version="1.1" id="Layer_1" xmlns="http://www.w3.org/2000/svg" xmlns:xlink="http://www.w3.org/1999/xlink" x="0px" y="0px"
	 viewBox="0 0 25 23.4" style="enable-background:new 0 0 25 23.4;" xml:space="preserve">
<style type="text/css">
	.st0{fill:#FFFFFF;}
</style>
<title>platformsAsset 34quesitons</title>
<path class="st0" d="M4.7,1.6V0h1.6v1.6h12.5V0h1.6v1.6H25v21.9H0V1.6H4.7z M20.3,3.1v1.6h-1.6V3.1H6.2v1.6H4.7V3.1H1.6v3.1h21.9
	V3.1H20.3z M23.4,21.9V7.8H1.6v14.1L23.4,21.9z M6.2,10.9H4.7V9.4h1.6V10.9z M6.2,14.1H4.7v-1.6h1.6V14.1z M6.2,17.2H4.7v-1.6h1.6
	V17.2z M10.9,10.9H9.4V9.4h1.6V10.9z M10.9,14.1H9.4v-1.6h1.6V14.1z M10.9,17.2H9.4v-1.6h1.6V17.2z M10.9,20.3H9.4v-1.6h1.6V20.3z
	 M15.6,10.9h-1.6V9.4h1.6V10.9z M15.6,14.1h-1.6v-1.6h1.6V14.1z M15.6,17.2h-1.6v-1.6h1.6V17.2z M15.6,20.3h-1.6v-1.6h1.6V20.3z
	 M20.3,14.1h-1.6v-1.6h1.6L20.3,14.1z M20.3,17.2h-1.6v-1.6h1.6L20.3,17.2z M20.3,20.3h-1.6v-1.6h1.6L20.3,20.3z"/>
</svg>
